X:1
T:That Fair Land
T:That Fair Land
T:C. M. Barnes
T:Vester Smith, 1896
T:Public Domain Courtesy of the Cyber Hymnal™
T:Public Domain Courtesy of the Cyber Hymnal™
C:C. M. Barnes
Z:Public Domain
Z:Courtesy of the Cyber Hymnal™
%%score 1 ( 2 3 )
L:1/8
Q:1/4=95
M:4/4
K:D
V:1 treble 
V:2 bass 
V:3 bass 
V:1
 [DF][EG] | [FA]2 [FA][GB] [FA]2 [DF][FA] | [Gd]2 [Gc][GB] [FA]2 [DF][EG] | %3
w: 1.~There’s a|land far a- way where the|long sum- mer day, Ev- er|
w: 2.~In that|land of the blest with its|glo- ries con- fessed, We shall|
w: 3.~Oh! that|land fair and bright, ’tis a|home of de- light, ’Tis a|
 [FA]2 [FA][GB] [FA]2 [FA][DF] | [CE]6 [DF][EG] | [FA]2 [FA][GB] [FA]2 [DF][FA] | %6
w: clothed with a splen- dor so|fair, ’Tis a|man- sion of rest for the|
w: rest with our Sav- ior a-|bove; In that|bright sun- ny clime as the|
w: home where we’ll rest ev- er-|more; With a|robe and a crown in that|
 [Gd]2 [Gc][GB] [FA]2 [FA][FA] | [GB]2 [Ae][Ad] [Gc]2 [GB][Gc] | [Fd]6 ||"^Refrain" [DF][EG] | %10
w: good and the blest, And we’ll|meet all the loved o- ver|there.||
w: stars we shall shine, Crowned with|glo- ry like an- gels of|love.|O- ver|
w: home of re- nown We shall|sing with the loved gone be-|fore.||
 [FA]6 [DF][FA] | [Gd]6 [Gc][GB] | [FA]2 [FA][FA] [Ad]2 [Gc][Fd] | [Ae]6 [Ad][Ae] | %14
w: ||||
w: there, o- ver|there, We shall|meet with the pure and the|fair; O- ver|
w: ||||
 [Af]6 [Ae][Ad] | [GB]6 [Gc][GB] | [FA]2 [Fd][Fd] [Ge]2 [Fd][Ec] | [Fd]6 |] %18
w: ||||
w: there, o- ver|there, We shall|meet in that home o- ver|there.|
w: ||||
V:2
 [D,A,][D,A,] | [D,D]2 [D,D][D,D] [D,D]2 [D,A,][D,D] | [G,B,]2 [G,D][G,D] [D,D]2 [D,A,][D,A,] | %3
w: ~ ~|~ ~ ~ ~ ~ ~|~ ~ ~ ~ ~ ~|
 [D,D]2 [D,D][D,D] [D,D]2 [D,D][D,A,] | [A,,A,]6 [D,A,][D,A,] | %5
w: ~ ~ ~ ~ ~ ~|~ ~ ~|
 [D,D]2 [D,D][D,D] [D,D]2 [D,A,][D,D] | [G,B,]2 [G,D][G,D] [D,D]2 [D,D][D,D] | %7
w: ~ ~ ~ ~ ~ ~|~ ~ ~ ~ ~ ~|
 [G,D]2 [G,B,][G,B,] A,2 [A,,A,][A,,A,] | [D,A,]6 || [D,A,][D,A,] | %10
w: ~ ~ ~ ~ ~ ~|~|O- ver|
 [D,D]2 [D,D][D,D] [D,D]2 [D,A,][D,D] | [G,B,]2 [G,B,][G,B,] [G,B,]2 [G,D][G,D] | %12
w: there, o- ver there, We shall|meet by and by, We shall|
 [D,D]2 [D,D][D,D] [F,D]2 [E,A,][D,D] | [A,C]2 [A,C][A,C] C2 [F,D][E,C] | %14
w: meet with the pure and the|fair; O- ver there, o- ver|
 [D,D]2 [D,D][D,D] [D,D]2 [E,C][F,D] | [G,D]2 [G,D][G,D] [G,D]2 [G,D][G,D] | %16
w: there, We shall meet, we shall|meet by and by. * *|
 [A,D]2 A,A, A,2 [A,,A,][A,,A,] | [D,A,]6 |] %18
w: ||
V:3
 x2 | x8 | x8 | x8 | x8 | x8 | x8 | x4 A,2 x2 | x6 || x2 | x8 | x8 | x8 | x4 (A,G,) x2 | x8 | x8 | %16
 x2 A,A, A,2 x2 | x6 |] %18

